icon-themes/sifr_svg/cmd/lc_customshowdialog.svg

<svg viewBox="0 0 24 24" xmlns="http://www.w3.org/2000/svg"><path d="m1 2v3h2v13h5l-3 3v1h2l4-4h.849609c.489801-.812352 1.166621-1.494442 1.97461-2h-8.824219v-11h14v3.5605469c1.187528.6963097 2 1.9728341 2 3.4394531v-7h2v-3zm20 10c0 1.455083-.82727 2.683594-2 3.382812v.029297c.747453.26947 1.419228.688376 2 1.205079zm-14-6v2h10v-2zm0 3v5h3v-5zm5 0v5h1.576172c-.191965-.308052-.338802-.643054-.4375-1h-.138672v-1-2h.560547c.221459-.3776904.499861-.7135486.828125-1zm5 0c-1.656854 0-3 1.343146-3 3s1.343146 3 3 3c1.656855 0 3-1.343146 3-3s-1.343145-3-3-3zm-9 1h1v3h-1zm9 1c.552285 0 1 .447715 1 1 0 .552284-.447715 1-1 1-.552284 0-1-.447716-1-1 0-.552285.447716-1 1-1zm0 5c-2.761423 0-5 2.238576-5 5v2h10v-1.941406c.000114-.01953.000114-.039064 0-.058594 0-2.761424-2.238576-5-5-5zm0 2c1.656855 0 3 1.343146 3 3h-6c0-1.656854 1.343146-3 3-3z" fill="#555753"/></svg>

<svg xmlns="http://www.w3.org/2000/svg" viewBox="0 0 24 24">
  <path
     style="fill:#555753"
     d="M 1 2 L 1 5 L 3 5 L 3 18 L 8 18 L 5 21 L 5 22 L 7 22 L 11 18 L 11.849609 18 C 12.33941 17.187648 13.01623 16.505558 13.824219 16 L 5 16 L 5 5 L 19 5 L 19 8.5605469 C 20.187528 9.2568566 21 10.533381 21 12 L 21 5 L 23 5 L 23 2 L 1 2 z M 21 12 C 21 13.455083 20.17273 14.683594 19 15.382812 L 19 15.412109 C 19.747453 15.681579 20.419228 16.100485 21 16.617188 L 21 12 z M 7 6 L 7 8 L 17 8 L 17 6 L 7 6 z M 7 9 L 7 14 L 10 14 L 10 9 L 7 9 z M 12 9 L 12 14 L 13.576172 14 C 13.384207 13.691948 13.23737 13.356946 13.138672 13 L 13 13 L 13 12 L 13 10 L 13.560547 10 C 13.782006 9.6223096 14.060408 9.2864514 14.388672 9 L 12 9 z M 17 9 C 15.343146 9 14 10.343146 14 12 C 14 13.656854 15.343146 15 17 15 C 18.656855 15 20 13.656854 20 12 C 20 10.343146 18.656855 9 17 9 z M 8 10 L 9 10 L 9 13 L 8 13 L 8 10 z M 17 11 C 17.552285 11 18 11.447715 18 12 C 18 12.552284 17.552285 13 17 13 C 16.447716 13 16 12.552284 16 12 C 16 11.447715 16.447716 11 17 11 z M 17 16 C 14.238577 16 12 18.238576 12 21 L 12 23 L 22 23 L 22 21.058594 C 22.000114 21.039064 22.000114 21.01953 22 21 C 22 18.238576 19.761424 16 17 16 z M 17 18 C 18.656855 18 20 19.343146 20 21 L 14 21 C 14 19.343146 15.343146 18 17 18 z "
     />
</svg>
